public/img/ecosystem/prompts.min.svg

<svg clip-rule="evenodd" fill-rule="evenodd" stroke-linejoin="round" stroke-miterlimit="2" viewBox="0 0 60 69" xmlns="http://www.w3.org/2000/svg" xmlns:xlink="http://www.w3.org/1999/xlink"><clipPath id="a"><path clip-rule="evenodd" d="m0 0h60v34.5h-60z"/></clipPath><g clip-path="url(#a)"><path d="m30 34.5-30-10.5v-24l60 21v3zm30 10.5v3l-60 21v-24l30-10.5z" fill="#fff"/></g><path d="m83 63.5-60 21v-24l60-21z" fill="#fff" fill-opacity=".5" fill-rule="nonzero" transform="translate(-23 -15.5)"/></svg>

<svg width="100%" height="100%" viewBox="0 0 60 69" version="1.1" xmlns="http://www.w3.org/2000/svg" xmlns:xlink="http://www.w3.org/1999/xlink" xml:space="preserve" xmlns:serif="http://www.serif.com/" style="fill-rule:evenodd;clip-rule:evenodd;stroke-linejoin:round;stroke-miterlimit:2;"><clipPath id="_clip1"><rect x="0" y="0" width="60" height="34.5"/></clipPath><g clip-path="url(#_clip1)"><path d="M30,34.5L0,24L0,0L60,21L60,24L30,34.5ZM60,45L60,48L0,69L0,45L30,34.5L60,45Z" style="fill:white;"/></g><g transform="matrix(1,0,0,1,-23,-15.5)"><path d="M83,63.5L23,84.5L23,60.5L83,39.5L83,63.5Z" style="fill:white;fill-opacity:0.5;fill-rule:nonzero;"/></g></svg>
